Origami/16x16/apps/winefile.svg

<svg width="16" height="16" version="1" xmlns="http://www.w3.org/2000/svg">
 <path d="m1.4004 1c-0.2216 0-0.4004 0.1788-0.4004 0.4004v2.5996h-0.5c-0.277 0-0.5 0.223-0.5 0.5v10c0 0.277 0.223 0.5 0.5 0.5h15c0.277 0 0.5-0.223 0.5-0.5v-10c0-0.277-0.223-0.5-0.5-0.5h-0.5v-0.5996-1-1c0-0.2216-0.179-0.4004-0.4-0.4004h-13.1996z" style="fill:#48aeff"/>
 <rect x="4" y="4" width="3" height="3" rx=".25" ry=".25" style="fill:#ffffff"/>
 <rect x="9" y="4" width="3" height="3" rx=".25" ry=".25" style="fill:#ffffff"/>
 <rect x="9" y="9" width="3" height="3" rx=".25" ry=".25" style="fill:#ffffff"/>
 <rect x="4" y="9" width="3" height="3" rx=".25" ry=".25" style="fill:#ffffff"/>
</svg>

<svg xmlns="http://www.w3.org/2000/svg" width="16" height="16" version="1">
 <path style="fill:#48aeff" d="M 1.4004 1 C 1.1788 1 1 1.1788 1 1.4004 L 1 4 L 0.5 4 C 0.223 4 0 4.223 0 4.5 L 0 14.5 C 0 14.777 0.223 15 0.5 15 L 15.5 15 C 15.777 15 16 14.777 16 14.5 L 16 4.5 C 16 4.223 15.777 4 15.5 4 L 15 4 L 15 3.4004 L 15 2.4004 L 15 1.4004 C 15 1.1788 14.821 1 14.6 1 L 1.4004 1 z"/>
 <rect style="fill:#ffffff" width="3" height="3" x="4" y="4" rx=".25" ry=".25"/>
 <rect style="fill:#ffffff" width="3" height="3" x="9" y="4" rx=".25" ry=".25"/>
 <rect style="fill:#ffffff" width="3" height="3" x="9" y="9" rx=".25" ry=".25"/>
 <rect style="fill:#ffffff" width="3" height="3" x="4" y="9" rx=".25" ry=".25"/>
</svg>
